packages/core/src/svgs/tokens/branded/STBU.svg

<svg width="24" height="24" viewBox="0 0 24 24" fill="none" xmlns="http://www.w3.org/2000/svg">
<path d="M12.9091 10.7878H14.7273V15.0303C14.7273 19.1212 18.5272 19.8788 20.4848 19.8788C21.1515 19.8788 21.394 19.7333 21.394 19.7333V16.2423H21.0181C20.2303 16.2423 18.9697 15.9273 18.9697 14.5575V4.12119H14.7273V7.75755H12.9091V10.7878ZM6.8909 16.5636C5.74084 16.5119 4.64068 16.079 3.76363 15.3333L2 18.0787C2 18.0787 3.83636 19.8788 6.90909 19.8788C10.0848 19.8788 12.6061 18.0241 12.6061 15.9394C12.6061 13.297 9.33332 12.4485 7.63635 11.8424C6.81211 11.5515 6.24242 11.3939 6.24242 11.0909C6.24242 10.6667 6.79393 10.4363 7.41211 10.4363C9.13332 10.4363 10.3213 11.4303 10.3213 11.4303L11.7333 8.52118C11.7333 8.52118 10.2788 7.12724 7.41211 7.12724C4.57576 7.12724 2.30302 8.49088 2.30302 10.7878C2.30302 13.406 4.84847 14.4061 6.55756 15.0485C7.43635 15.3818 8.06059 15.6545 8.06059 16.0182C8.06059 16.4242 7.50908 16.5636 6.8909 16.5636Z" fill="#20242F"/>
<path d="M18.9697 10.7879H21.9999V7.75757H18.9697V10.7879Z" fill="#47B9FF"/>
</svg>

<svg xmlns="http://www.w3.org/2000/svg" width="24" height="24" fill="none" viewBox="0 0 24 24">
    <path fill="#20242F" d="M12.91 10.788h1.817v4.242c0 4.091 3.8 4.849 5.758 4.849.666 0 .909-.146.909-.146v-3.49h-.376c-.788 0-2.048-.316-2.048-1.685V4.12h-4.243v3.637H12.91zm-6.02 5.776a5.2 5.2 0 0 1-3.126-1.23L2 18.078s1.836 1.8 4.91 1.8c3.175 0 5.696-1.855 5.696-3.94 0-2.642-3.273-3.49-4.97-4.097-.824-.29-1.394-.448-1.394-.751 0-.424.552-.655 1.17-.655 1.721 0 2.91.994 2.91.994l1.411-2.909s-1.454-1.394-4.32-1.394c-2.837 0-5.11 1.364-5.11 3.66 0 2.619 2.545 3.62 4.255 4.262.878.333 1.503.606 1.503.97 0 .405-.552.545-1.17.545"/>
    <path fill="#47B9FF" d="M18.97 10.788H22v-3.03h-3.03z"/>
</svg>
